Numix-Light/16/status/indicator-keyboard-Tn.svg

<?xml version="1.0" encoding="UTF-8" standalone="no"?>
<svg
   xmlns:dc="http://purl.org/dc/elements/1.1/"
   xmlns:cc="http://creativecommons.org/ns#"
   xmlns:rdf="http://www.w3.org/1999/02/22-rdf-syntax-ns#"
   xmlns:svg="http://www.w3.org/2000/svg"
   xmlns="http://www.w3.org/2000/svg"
   xmlns:sodipodi="http://sodipodi.sourceforge.net/DTD/sodipodi-0.dtd"
   xmlns:inkscape="http://www.inkscape.org/namespaces/inkscape"
   viewBox="0 0 16 16"
   id="svg2"
   version="1.1"
   inkscape:version="0.91 r13725"
   sodipodi:docname="indicator-keyboard-Tn.svg">
  <metadata
     id="metadata13">
    <rdf:RDF>
      <cc:Work
         rdf:about="">
        <dc:format>image/svg+xml</dc:format>
        <dc:type
           rdf:resource="http://purl.org/dc/dcmitype/StillImage" />
      </cc:Work>
    </rdf:RDF>
  </metadata>
  <defs
     id="defs11" />
  <sodipodi:namedview
     pagecolor="#ffffff"
     bordercolor="#666666"
     borderopacity="1"
     objecttolerance="10"
     gridtolerance="10"
     guidetolerance="10"
     inkscape:pageopacity="0"
     inkscape:pageshadow="2"
     inkscape:window-width="459"
     inkscape:window-height="369"
     id="namedview9"
     showgrid="false"
     inkscape:zoom="14.75"
     inkscape:cx="8"
     inkscape:cy="8"
     inkscape:window-x="65"
     inkscape:window-y="24"
     inkscape:window-maximized="0"
     inkscape:current-layer="svg2" />
  <path
     style="fill:#353535;fill-opacity:1"
     d="M 1.5996094 0 C 0.71320937 2.9605947e-16 0 0.71320937 0 1.5996094 L 0 14.400391 C 2.9605947e-16 15.286791 0.71320937 16 1.5996094 16 L 14.400391 16 C 15.286791 16 16 15.286791 16 14.400391 L 16 1.5996094 C 16 0.71320937 15.286791 0 14.400391 0 L 1.5996094 0 z M 3.5429688 4.8808594 L 8.1503906 4.8808594 L 8.1503906 5.4121094 L 6.1523438 5.4121094 L 6.1523438 11.119141 L 5.5410156 11.119141 L 5.5410156 5.4121094 L 3.5429688 5.4121094 L 3.5429688 4.8808594 z M 10.613281 6.375 C 10.967281 6.375 11.260141 6.4272969 11.494141 6.5292969 C 11.734141 6.6312969 11.922547 6.77675 12.060547 6.96875 C 12.204547 7.15475 12.307188 7.3805312 12.367188 7.6445312 C 12.427188 7.9085313 12.457031 8.1995781 12.457031 8.5175781 L 12.457031 11.119141 L 11.873047 11.119141 L 11.873047 8.7070312 C 11.873047 8.3770313 11.848781 8.0971406 11.800781 7.8691406 C 11.758781 7.6411406 11.684172 7.4545469 11.576172 7.3105469 C 11.474172 7.1665469 11.336109 7.0658594 11.162109 7.0058594 C 10.994109 6.9398594 10.779484 6.90625 10.521484 6.90625 C 10.245484 6.90625 10.006735 6.9211719 9.8027344 6.9511719 C 9.6047344 6.9811719 9.4760156 7.0092031 9.4160156 7.0332031 L 9.4160156 11.119141 L 8.8300781 11.119141 L 8.8300781 6.6269531 C 9.0040781 6.5789531 9.2392031 6.5248438 9.5332031 6.4648438 C 9.8272031 6.4048438 10.187281 6.375 10.613281 6.375 z "
     id="path4" />
</svg>

<svg xmlns="http://www.w3.org/2000/svg" viewBox="0 0 16 16">
 <path d="m 1.6 0 c -0.886 0 -1.6 0.713 -1.6 1.6 l 0 12.801 c 0 0.886 0.713 1.6 1.6 1.6 l 12.801 0 c 0.886 0 1.6 -0.713 1.6 -1.6 l 0 -12.801 c 0 -0.886 -0.713 -1.6 -1.6 -1.6 l -12.801 0 z m 1.943 4.881 l 4.607 0 l 0 0.531 l -1.998 0 l 0 5.707 l -0.611 0 l 0 -5.707 l -1.998 0 l 0 -0.531 z m 7.07 1.494 c 0.354 0 0.647 0.052 0.881 0.154 c 0.24 0.102 0.428 0.247 0.566 0.439 c 0.144 0.186 0.247 0.412 0.307 0.676 c 0.06 0.264 0.09 0.555 0.09 0.873 l 0 2.602 l -0.584 0 l 0 -2.412 c 0 -0.33 -0.024 -0.61 -0.072 -0.838 c -0.042 -0.228 -0.117 -0.415 -0.225 -0.559 c -0.102 -0.144 -0.24 -0.245 -0.414 -0.305 c -0.168 -0.066 -0.383 -0.1 -0.641 -0.1 c -0.276 0 -0.515 0.015 -0.719 0.045 c -0.198 0.03 -0.327 0.058 -0.387 0.082 l 0 4.086 l -0.586 0 l 0 -4.492 c 0.174 -0.048 0.409 -0.102 0.703 -0.162 c 0.294 -0.06 0.654 -0.09 1.08 -0.09 z" style="fill:#353535;fill-opacity:1"/>
</svg>
